flaticon/hand-gestures/tap-11.svg

<svg xmlns="http://www.w3.org/2000/svg" width="32" height="32" viewBox="0 0 24 24">
    <path d="M 5.144531 8.28125 L 8.183594 5.679688 C 8.824219 5.121094 9.304688 4.359375 9.503906 3.558594 C 9.625 3 9.582031 2.679688 9.582031 2.558594 C 9.421875 1.078125 8.261719 0 6.824219 0 C 5.941406 0 5.222656 0.519531 4.742188 1.160156 C 4.261719 0.519531 3.542969 0 2.664062 0 C 1.261719 0 0.183594 1.039062 0.0234375 2.558594 C 0.0234375 2.679688 -0.015625 3 0.101562 3.558594 C 0.304688 4.359375 0.785156 5.121094 1.421875 5.679688 L 4.464844 8.28125 C 4.582031 8.359375 4.664062 8.398438 4.785156 8.398438 C 4.902344 8.398438 5.023438 8.359375 5.144531 8.28125 Z M 1.984375 5.078125 C 1.421875 4.601562 1.0625 4 0.902344 3.359375 C 0.78125 2.921875 0.824219 2.679688 0.824219 2.679688 C 0.902344 1.71875 1.503906 0.800781 2.664062 0.800781 C 3.464844 0.800781 4.101562 1.441406 4.382812 2.078125 L 4.742188 2.921875 L 5.101562 2.078125 C 5.382812 1.441406 6.023438 0.800781 6.824219 0.800781 C 7.824219 0.800781 8.664062 1.601562 8.78125 2.679688 C 8.78125 2.679688 8.824219 2.921875 8.742188 3.359375 C 8.582031 4 8.222656 4.601562 7.664062 5.078125 L 4.824219 7.480469 Z M 1.984375 5.078125"/>
    <path d="M 21.984375 8.398438 C 21.542969 8.398438 21.101562 8.558594 20.78125 8.800781 L 20.78125 8.398438 C 20.78125 7.28125 19.902344 6.398438 18.78125 6.398438 C 18.34375 6.398438 17.902344 6.558594 17.582031 6.800781 C 17.582031 5.679688 16.703125 4.800781 15.582031 4.800781 C 15.144531 4.800781 14.703125 4.960938 14.382812 5.199219 L 14.382812 2 C 14.382812 0.878906 13.503906 0 12.382812 0 C 11.261719 0 10.382812 0.878906 10.382812 2 L 10.382812 11.078125 C 9.503906 9.558594 7.464844 8.800781 5.902344 9.359375 C 5.703125 9.398438 5.542969 9.519531 5.34375 9.640625 C 4.742188 10.039062 4.78125 10.558594 4.78125 10.71875 C 4.742188 10.960938 4.78125 11 5.34375 11.640625 C 6.023438 12.441406 7.503906 14.121094 8.421875 15.800781 C 8.503906 15.878906 9.582031 17.640625 10.785156 18.960938 L 10.785156 20 C 10.785156 22.199219 12.582031 24 14.78125 24 L 18.78125 24 C 20.503906 24 22.304688 22.558594 22.703125 20.878906 C 22.824219 20.398438 22.941406 20.039062 23.101562 19.878906 C 23.503906 19.398438 23.984375 18.28125 23.984375 16.800781 L 23.984375 10.398438 C 23.984375 9.28125 23.101562 8.398438 21.984375 8.398438 Z M 18.824219 23.199219 L 14.824219 23.199219 C 13.0625 23.199219 11.625 21.761719 11.625 20 L 11.625 19.636719 C 11.703125 19.695312 11.78125 19.75 11.863281 19.800781 C 12.101562 20 12.304688 20.121094 12.542969 20.320312 C 12.785156 20.558594 13.023438 20.359375 13.0625 20.238281 C 13.222656 20.078125 13.183594 19.839844 13.023438 19.679688 C 12.785156 19.441406 12.542969 19.28125 12.304688 19.121094 C 12.027344 18.921875 11.75 18.722656 11.472656 18.488281 C 10.28125 17.246094 9.144531 15.398438 9.144531 15.398438 C 8.183594 13.679688 6.664062 11.960938 5.941406 11.121094 C 5.824219 10.960938 5.664062 10.761719 5.582031 10.679688 C 5.582031 10.558594 5.582031 10.480469 5.863281 10.320312 C 6.023438 10.238281 6.144531 10.160156 6.261719 10.121094 C 7.304688 9.761719 9.023438 10.238281 9.78125 11.558594 L 10.402344 12.488281 C 10.40625 12.511719 10.414062 12.535156 10.421875 12.558594 L 10.824219 13.359375 C 10.902344 13.519531 11.304688 13.601562 11.34375 13.519531 C 11.503906 13.441406 11.582031 13.199219 11.503906 13 L 11.222656 12.433594 C 11.222656 12.421875 11.222656 12.410156 11.222656 12.398438 L 11.222656 2 C 11.222656 1.320312 11.742188 0.800781 12.421875 0.800781 C 13.101562 0.800781 13.625 1.320312 13.625 2 L 13.625 13.199219 C 13.625 13.441406 13.78125 13.601562 14.023438 13.601562 C 14.261719 13.601562 14.421875 13.441406 14.421875 13.199219 L 14.421875 6.800781 C 14.421875 6.121094 14.941406 5.601562 15.621094 5.601562 C 16.304688 5.601562 16.824219 6.121094 16.824219 6.800781 L 16.824219 12.800781 C 16.824219 13.039062 16.984375 13.199219 17.222656 13.199219 C 17.464844 13.199219 17.621094 13.039062 17.621094 12.800781 L 17.621094 8.398438 C 17.621094 7.71875 18.144531 7.199219 18.824219 7.199219 C 19.503906 7.199219 20.023438 7.71875 20.023438 8.398438 L 20.023438 13.199219 C 20.023438 13.441406 20.183594 13.601562 20.421875 13.601562 C 20.664062 13.601562 20.824219 13.441406 20.824219 13.199219 L 20.824219 10.398438 C 20.824219 9.71875 21.34375 9.199219 22.023438 9.199219 C 22.703125 9.199219 23.222656 9.71875 23.222656 10.398438 L 23.222656 16.800781 C 23.222656 17.542969 23.078125 18.144531 22.910156 18.582031 C 22.875 18.621094 22.84375 18.667969 22.824219 18.71875 C 22.664062 19.238281 22.183594 19.359375 21.304688 19.601562 L 21.0625 19.640625 C 20.863281 19.679688 20.742188 19.921875 20.78125 20.121094 C 20.863281 20.28125 21.023438 20.398438 21.183594 20.398438 C 21.222656 20.398438 21.261719 20.398438 21.304688 20.398438 L 21.503906 20.398438 C 21.6875 20.351562 21.871094 20.300781 22.050781 20.246094 C 22.007812 20.382812 21.972656 20.527344 21.941406 20.679688 C 21.664062 22.039062 20.183594 23.199219 18.824219 23.199219 Z M 18.824219 23.199219"/>
</svg>

<svg xmlns="http://www.w3.org/2000/svg" width="32" height="32" viewBox="0 0 24 24">
    <path d="M5.145 8.281L8.184 5.68c.64-.559 1.12-1.32 1.32-2.121.121-.559.078-.88.078-1C9.422 1.079 8.262 0 6.824 0c-.883 0-1.601.52-2.082 1.16C4.262.52 3.543 0 2.664 0 1.262 0 .184 1.04.024 2.559c0 .12-.04.441.078 1 .203.8.683 1.562 1.32 2.12l3.043 2.602c.117.078.2.117.32.117.117 0 .238-.039.36-.117zm-3.16-3.203A3.291 3.291 0 0 1 .901 3.36c-.12-.437-.078-.68-.078-.68.078-.96.68-1.878 1.84-1.878.8 0 1.438.64 1.719 1.277l.36.844.359-.844c.28-.637.921-1.277 1.722-1.277 1 0 1.84.8 1.957 1.879 0 0 .043.242-.039.68-.16.64-.52 1.242-1.078 1.718L4.824 7.48zm0 0"/>
    <path d="M21.984 8.398c-.441 0-.882.16-1.203.403v-.403c0-1.117-.879-2-2-2-.437 0-.879.16-1.199.403 0-1.121-.879-2-2-2-.437 0-.879.16-1.2.398V2c0-1.121-.878-2-2-2-1.12 0-2 .879-2 2v9.078c-.878-1.52-2.917-2.277-4.48-1.719-.199.04-.359.16-.558.282-.602.398-.563.918-.563 1.078-.039.242 0 .281.563.922.68.8 2.16 2.48 3.078 4.16.082.078 1.16 1.84 2.363 3.16V20c0 2.2 1.797 4 3.996 4h4c1.723 0 3.524-1.441 3.922-3.121.121-.48.238-.84.399-1 .402-.48.882-1.598.882-3.078v-6.403c0-1.117-.882-2-2-2zM18.824 23.2h-4A3.206 3.206 0 0 1 11.625 20v-.363c.078.058.156.113.238.164.239.199.442.32.68.52.242.238.48.038.52-.083.16-.16.12-.398-.04-.558-.238-.239-.48-.399-.718-.559a13.02 13.02 0 0 1-.832-.633c-1.192-1.242-2.328-3.09-2.328-3.09-.961-1.718-2.48-3.437-3.204-4.277a4.841 4.841 0 0 0-.359-.441c0-.121 0-.2.281-.36.16-.082.282-.16.399-.199 1.043-.36 2.761.117 3.52 1.438l.62.93a.472.472 0 0 0 .02.07l.402.8c.078.16.48.243.52.16.16-.078.238-.32.16-.519l-.281-.566V2c0-.68.52-1.2 1.199-1.2.68 0 1.203.52 1.203 1.2v11.2c0 .241.156.402.398.402.239 0 .399-.16.399-.403V6.801c0-.68.52-1.2 1.2-1.2.683 0 1.202.52 1.202 1.2v6c0 .238.16.398.399.398.242 0 .398-.16.398-.398V8.398c0-.68.524-1.199 1.203-1.199.68 0 1.2.52 1.2 1.2v4.8c0 .242.16.403.398.403.242 0 .402-.16.402-.403v-2.8c0-.68.52-1.2 1.2-1.2.68 0 1.199.52 1.199 1.2V16.8c0 .742-.145 1.344-.313 1.781a.45.45 0 0 0-.086.137c-.16.52-.64.64-1.52.883l-.241.039c-.2.039-.32.28-.282.48.082.16.242.277.403.277h.32c.183-.046.367-.097.547-.152a4.39 4.39 0 0 0-.11.434c-.277 1.36-1.757 2.52-3.117 2.52zm0 0"/>
</svg>
